!!!COM: Gaspar van Weerbeke
!!!CDT: ~1450-~1517
!!!OTL: Credo cardinale
!!!AGN: Mass
!!!SCT: Gas0206
!!!SCA: Gas0206
!!!voices: 4
**kern	**text	**kern	**text	**kern	**text	**kern	**text
*part4	*part4	*part3	*part3	*part2	*part2	*part1	*part1
*staff4	*staff4	*staff3	*staff3	*staff2	*staff2	*staff1	*staff1
*I"Bassus	*	*I"Tenor	*	*I"Altus	*	*I"Cantus	*
*I'B	*	*I'T	*	*I'A	*	*I'C	*
*clefF4	*	*clefGv2	*	*clefGv2	*	*clefG2	*
*k[]	*	*k[]	*	*k[]	*	*k[]	*
*M2/2	*	*M2/2	*	*M2/2	*	*M2/2	*
*met(C|)	*	*met(C|)	*	*met(C|)	*	*met(C|)	*
*MM180	*	*MM180	*	*MM180	*	*MM180	*
=1	=1	=1	=1	=1	=1	=1	=1
1r	.	1A	Pa-	1r	.	1r	.
=2	=2	=2	=2	=2	=2	=2	=2
1A	Pa-	1D	-trem	1r	.	1r	.
=3	=3	=3	=3	=3	=3	=3	=3
*	*	*	*edit	*	*	*	*
[1D	-trem	1A	o-	1d	Pa-	1r	.
=4	=4	=4	=4	=4	=4	=4	=4
1D]	.	2F	.	1A	-trem	1a	Pa-
.	.	2D	.	.	.	.	.
=5	=5	=5	=5	=5	=5	=5	=5
*	*edit	*	*	*	*edit	*	*
1BB-X	o-	2F	.	4.f	o-	1d	-trem
.	.	.	.	8e	.	.	.
.	.	2G	.	4d	.	.	.
.	.	.	.	4B-j	.	.	.
=6	=6	=6	=6	=6	=6	=6	=6
1AA	-mni-	1E	-mni-	1c	.	1a	o-
=7	=7	=7	=7	=7	=7	=7	=7
2C	-po-	2E	-po-	2e	-mni-	2g	-mni-
2D	.	2F	.	2d	-po-	2f	-po-
!!LO:LB:g=original
=8	=8	=8	=8	=8	=8	=8	=8
4E	.	4G	.	4B	-ten-	2e	-ten-
4C	.	4E	.	4c	.	.	.
2D	.	4F	.	4.A	.	2d	.
.	.	8EL	.	.	.	.	.
.	.	8DJ	.	8B	.	.	.
=9	=9	=9	=9	=9	=9	=9	=9
4AA	-ten-	4C	.	4c	.	4e	.
4BB-j	.	4D	.	4G	.	2d	.
2AA	-tem,	2E	-ten-	[2A	.	.	.
.	.	.	.	.	.	4c#i	.
=10	=10	=10	=10	=10	=10	=10	=10
2r	.	1D	-tem,	2A]	.	1d	-tem,
*	*Xedit	*	*	*	*	*	*
4.A	fa-	.	.	2F	.	.	.
8B	.	.	.	.	.	.	.
=11	=11	=11	=11	=11	=11	=11	=11
*	*	*	*Xedit	*	*	*	*
4c	.	2.C	fa-	2G	-tem,	1e	fa-
8BL	.	.	.	.	.	.	.
8AJ	.	.	.	.	.	.	.
*	*	*	*	*	*Xedit	*	*
4G	.	.	.	2c	fa-	.	.
[4E	.	4D	.	.	.	.	.
=12	=12	=12	=12	=12	=12	=12	=12
4E]	.	2E	.	4.B	-cto-	1g	-cto-
8DL	.	.	.	.	.	.	.
8CJ	.	.	.	8c	.	.	.
2BB	.	2D	.	2d	.	.	.
=13	=13	=13	=13	=13	=13	=13	=13
4.AA	-cto-	2.E	-cto-	4.c	-rem	1a	-rem
8BB	.	.	.	8B	.	.	.
4C	.	.	.	2A	.	.	.
4D	.	4F	.	.	.	.	.
=14	=14	=14	=14	=14	=14	=14	=14
2GG	-rem	4.G	-rem	4r	.	1b	ce-
*	*	*	*	*	*edit	*	*
.	.	.	.	4d	ce-	.	.
.	.	8A	.	.	.	.	.
4r	.	8BL	.	4.g	.	.	.
.	.	8cJ	.	.	.	.	.
*	*edit	*	*	*	*	*	*
4G	ce-	4d	.	.	.	.	.
.	.	.	.	8f	.	.	.
!!LO:LB:g=original
=15	=15	=15	=15	=15	=15	=15	=15
4A	.	4c	.	4e	.	2cc	-li
4F	.	4A	.	4f	.	.	.
2G	-li,	4G	.	4.d	.	2b	et
*	*	*	*edit	*	*	*	*
.	.	[4d	ce-	.	.	.	.
.	.	.	.	8e	.	.	.
=16	=16	=16	=16	=16	=16	=16	=16
4r	.	4d]	.	2f	-li	2a	ter-
4F	ce-	4c	.	.	.	.	.
4G	-li	4B	.	4r	.	4b	.
4A	et	4c	.	4e	et	[4a	.
=17	=17	=17	=17	=17	=17	=17	=17
2F	ter-	4d	-li	4f	.	4a]	.
.	.	4A	et	4d	.	8g#iL	.
.	.	.	.	.	.	8f#iJ	.
2E	.	2B	ter-	2e	ter-	2g#i	.
=18	=18	=18	=18	=18	=18	=18	=18
4.F	.	1A	-re,	4.c	-re,	[1a	-re,
8E	.	.	.	8d	.	.	.
8DL	.	.	.	4e	.	.	.
8CJ	.	.	.	.	.	.	.
[4D	.	.	.	[4f	vi-	.	.
=19	=19	=19	=19	=19	=19	=19	=19
4D]	.	2r	.	4f]	.	1a]	.
4E	.	.	.	4g	-si-	.	.
*	*	*	*Xedit	*	*	*	*
2F	-re,	2D	vi-	2a	-bi-	.	.
=20	=20	=20	=20	=20	=20	=20	=20
1r	.	2G	.	4.g	-li-	2b	vi-
.	.	.	.	8f	.	.	.
.	.	2A	-si-	2e	.	2cc	-si-
=21	=21	=21	=21	=21	=21	=21	=21
*	*Xedit	*	*	*	*	*	*
2GG	vi-	4.D	-bi-	2d	-um,	2dd	-bi-
.	.	8E	.	.	.	.	.
2AA	-si-	2F	.	4r	.	2cc	-li-
*	*	*	*	*	*Xedit	*	*
.	.	.	.	4A	vi-	.	.
!!LO:LB:g=original
=22	=22	=22	=22	=22	=22	=22	=22
4.GG	-bi-	4.G	-li-	4.B	-si-	1b	-um
8AA	.	8F	.	8c	.	.	.
8BBL	.	2D	.	4.d	-bi-	.	.
8CJ	.	.	.	.	.	.	.
4D	.	.	.	.	.	.	.
.	.	.	.	8c	-li-	.	.
=23	=23	=23	=23	=23	=23	=23	=23
4E	.	4G	-um	4B	-um	2b	o-
*	*	*	*	*	*edit	*	*
4G	.	4E	.	2e	o-	.	.
2F	-li-	2A	.	.	.	2a	-mni-
.	.	.	.	4d	-mni-	.	.
=24	=24	=24	=24	=24	=24	=24	=24
*	*	*	*edit	*	*	*	*
2.E	-um	2.B	o-	1e	-um	1g	-um
*	*edit	*	*	*	*	*	*
[4G	o-	4c	-mni-	.	.	.	.
=25	=25	=25	=25	=25	=25	=25	=25
4G]	.	1d	-um	2r	.	1b	et
8FL	.	.	.	.	.	.	.
8EJ	.	.	.	.	.	.	.
2D	-mni-	.	.	2f	et	.	.
=26	=26	=26	=26	=26	=26	=26	=26
*	*	*	*Xedit	*	*	*	*
1C	-um	2.e	et	2g	in-	1cc	in-
.	.	.	.	4e	-vi-	.	.
.	.	4c	in-	[4g	-si-	.	.
=27	=27	=27	=27	=27	=27	=27	=27
2GG	et	2.d	-vi-	4g]	.	2b	-vi-
.	.	.	.	8fL	.	.	.
.	.	.	.	8eJ	.	.	.
4r	.	.	.	4f	-bi-	2a	-si-
4AA	in-	4c	-si-	4e	.	.	.
=28	=28	=28	=28	=28	=28	=28	=28
4GG	-vi-	4d	-bi-	4g	.	4b	-bi-
4AA	-si-	4A	.	2.e	-li-	2a	.
2E	-bi-li-	2B	-li-	.	.	.	.
.	.	.	.	.	.	4g#i	-li-
!!LO:LB:g=original
=29	=29	=29	=29	=29	=29	=29	=29
1AA	um.	1A	-um.	2c	-um.	[1a	-um.
*	*	*	*	*	*Xedit	*	*
.	.	.	.	[2e	Et	.	.
=30	=30	=30	=30	=30	=30	=30	=30
*	*Xedit	*	*	*	*	*	*
1A	Et	1c	Et	2e]	.	1a_	.
.	.	.	.	[2A	in	.	.
=31	=31	=31	=31	=31	=31	=31	=31
1D	in	2d	.	2A]	.	1a]	.
.	.	2A	in	2d	u-	.	.
=32	=32	=32	=32	=32	=32	=32	=32
1G	u-	1B	u-	2e	.	1r	.
.	.	.	.	2d	-num	.	.
=33	=33	=33	=33	=33	=33	=33	=33
*	*	*	*	*	*edit	*	*
1A	-num	2A	.	4.c	do-	1a	Et
.	.	.	.	16dLL	.	.	.
.	.	.	.	16eJJ	.	.	.
.	.	2D	.	2f	.	.	.
=34	=34	=34	=34	=34	=34	=34	=34
*	*edit	*	*	*	*	*	*
1G	do-	2G	.	4d	.	2d	in
.	.	.	.	2g	.	.	.
.	.	2E	-num	.	.	2g	u-
.	.	.	.	[4e	-mi-	.	.
=35	=35	=35	=35	=35	=35	=35	=35
2F	-mi-	2r	.	4e]	.	2a	-num
.	.	.	.	4d	.	.	.
*	*	*	*edit	*	*	*	*
2E	-num	4.G	do-	[2e	-num	[2g	do-
.	.	8A	.	.	.	.	.
=36	=36	=36	=36	=36	=36	=36	=36
4r	.	4B	.	2e]	.	2g]	.
4C	Je-	4c	.	.	.	.	.
2D	.	2A	-mi-	2d	Je-	2f	-mi-
!!LO:LB:g=original
=37	=37	=37	=37	=37	=37	=37	=37
2C	.	4E	-num	4e	.	2e	-num
.	.	4G	.	4c	.	.	.
2D	.	2F	.	2A	-sum	2d	Je-
=38	=38	=38	=38	=38	=38	=38	=38
*	*	*	*	*lig	*	*	*
1AA	-sum	2E	.	2A	Chri-	1c	-sum
.	.	[2A	Je-	2c	.	.	.
*	*	*	*	*Xlig	*	*	*
=39	=39	=39	=39	=39	=39	=39	=39
4D	Chri-	2A]	.	4d	.	2d	Chri-
4AA	.	.	.	4.e	.	.	.
2C	.	2G	-sum	.	.	[2e	.
.	.	.	.	8dL	.	.	.
.	.	.	.	8c	.	.	.
.	.	.	.	8BJ	.	.	.
=40	=40	=40	=40	=40	=40	=40	=40
1D	-stum,	1F	Chri-	2.A	.	4e]	.
.	.	.	.	.	.	8dL	.
.	.	.	.	.	.	8cJ	.
.	.	.	.	.	.	2d	.
.	.	.	.	4B	.	.	.
=41	=41	=41	=41	=41	=41	=41	=41
*	*Xedit	*	*	*	*	*	*
1AA	fi-	2E	-stum,	2.c	-stum,	1e	-stum,
*	*	*	*Xedit	*	*	*	*
.	.	2E	fi-	.	.	.	.
*	*	*	*	*	*Xedit	*	*
.	.	.	.	[4e	fi-	.	.
=42	=42	=42	=42	=42	=42	=42	=42
1E	-li-	1G	-li-	4e]	.	1r	.
.	.	.	.	8dL	.	.	.
.	.	.	.	8cJ	.	.	.
.	.	.	.	2B	-li-	.	.
=43	=43	=43	=43	=43	=43	=43	=43
1AA	-um,	1A	-um	4A	-um,	1e	fi-
*	*	*	*	*	*edit	*	*
.	.	.	.	2c	fi-	.	.
.	.	.	.	8BL	.	.	.
.	.	.	.	8AJ	.	.	.
!!LO:LB:g=original
=44	=44	=44	=44	=44	=44	=44	=44
*	*edit	*	*edit	*	*	*	*
4E	fi-	1B	de-	4G	.	1g	-li-
8DL	.	.	.	4E	-li-	.	.
8CJ	.	.	.	.	.	.	.
2BB	-li-	.	.	[2G	-um	.	.
=45	=45	=45	=45	=45	=45	=45	=45
1AA	-um	1c	-i	4G]	.	1a	-um
.	.	.	.	4E	.	.	.
.	.	.	.	2F#i	de-	.	.
=46	=46	=46	=46	=46	=46	=46	=46
4GG	.	4.B	u-	2G	-i	1b	de-
4.G	de-	.	.	.	.	.	.
.	.	8c	.	.	.	.	.
.	.	4d	.	4r	.	.	.
8FL	.	.	.	.	.	.	.
8E	.	[4e	.	[4g	u-	.	.
8DJ	.	.	.	.	.	.	.
=47	=47	=47	=47	=47	=47	=47	=47
2C	-i	8e]	.	4g]	.	1cc	-i
.	.	8dL	.	.	.	.	.
.	.	8c	.	8f#iL	.	.	.
.	.	8BJ	.	8eJ	.	.	.
2r	.	2A	.	2f#i	-ni-	.	.
=48	=48	=48	=48	=48	=48	=48	=48
2E	u-	2G	-ni-	2g	-ge-	2b	u-
4F	-ni-	[2d	-ge-	8fL	.	4a	-ni-
.	.	.	.	8e	.	.	.
[4G	-ge-	.	.	8d	.	[4b	-ge-
.	.	.	.	8cJ	.	.	.
=49	=49	=49	=49	=49	=49	=49	=49
4G]	.	4d]	.	4B	.	4b]	.
4A	.	4c	.	2.e	-ni-	2a	.
2E	-ni-	2B	-ni-	.	.	.	.
.	.	.	.	.	.	4g#i	-ni-
=50	=50	=50	=50	=50	=50	=50	=50
2.F	-tum.	1A	-tum.	1c	-tum.	1a	-tum.
8EL	.	.	.	.	.	.	.
8DJ	.	.	.	.	.	.	.
!!LO:LB:g=original
=51	=51	=51	=51	=51	=51	=51	=51
*	*	*	*	*	*Xedit	*	*
2C	.	1r	.	2e	Et	1r	.
2D	.	.	.	2f	ex	.	.
=52	=52	=52	=52	=52	=52	=52	=52
*	*	*	*Xedit	*	*	*	*
2GG	.	2B	Et	1g	pa-	1r	.
*	*Xedit	*	*	*	*	*	*
[2C	Et	2c	ex	.	.	.	.
=53	=53	=53	=53	=53	=53	=53	=53
2C]	.	1d	pa-	1f	-tre	1r	.
2BB	ex	.	.	.	.	.	.
=54	=54	=54	=54	=54	=54	=54	=54
*	*	*	*	*	*edit	*	*
4.C	pa-	1c	-tre	4.e	na-	1r	.
8D	.	.	.	8f	.	.	.
4E	.	.	.	4g	.	.	.
[4F	-tre	.	.	[4a	.	.	.
=55	=55	=55	=55	=55	=55	=55	=55
4F]	.	1B	na-	4a]	.	1r	.
8EL	.	.	.	8gL	.	.	.
8DJ	.	.	.	8fJ	.	.	.
*	*edit	*	*	*	*	*	*
2E	na-	.	.	8gL	.	.	.
.	.	.	.	8f	.	.	.
.	.	.	.	8e	.	.	.
.	.	.	.	8dJ	.	.	.
=56	=56	=56	=56	=56	=56	=56	=56
1F	-tum	1A	-tum	1c	-tum	1r	.
=57	=57	=57	=57	=57	=57	=57	=57
*	*	*	*edit	*	*	*	*
2F	an-	2D	an-	2d	an-	1a	an-
2D	-te	2F	-te	2d	-te	.	.
=58	=58	=58	=58	=58	=58	=58	=58
1r	.	2G	o-	4.B	o-	1d	-te
.	.	.	.	8G	.	.	.
.	.	4F	.	4A	.	.	.
.	.	4G	.	4B	.	.	.
!!LO:LB:g=original
=59	=59	=59	=59	=59	=59	=59	=59
2D	o-	4.F	.	4.A	-mni-	1a	o-
.	.	8G	.	8B	.	.	.
4.AA	-mni-	8AL	.	8cL	.	.	.
.	.	8BJ	.	8dJ	.	.	.
.	.	[4c	.	[4e	.	.	.
8BB	.	.	.	.	.	.	.
=60	=60	=60	=60	=60	=60	=60	=60
8CL	.	4c]	.	8e]	.	2g	-mni-
8DJ	.	.	.	8f	.	.	.
4E	.	4B	-mni-	4g	.	.	.
2F	-a	4A	-a	4.c	-a	2a	-a
.	.	[4c	se-	.	.	.	.
.	.	.	.	8d	.	.	.
=61	=61	=61	=61	=61	=61	=61	=61
2E	se-	8c]	.	2e	se-	2g	se-
.	.	8B	.	.	.	.	.
.	.	4c	.	.	.	.	.
2D	-cu-	2d	-cu-	2A	-cu-	2f	-cu-
=62	=62	=62	=62	=62	=62	=62	=62
[1AA	-la.	1c	-la.	1A	-la.	[1e	-la.
=63	=63	=63	=63	=63	=63	=63	=63
*	*	*	*Xedit	*	*Xedit	*	*
1AA]	.	2.c	De-	1A	De-	1e]	.
.	.	8BL	.	.	.	.	.
.	.	8AJ	.	.	.	.	.
=64	=64	=64	=64	=64	=64	=64	=64
1r	.	2B	.	2G	-um	1r	.
.	.	2G	-um	2B	de	.	.
=65	=65	=65	=65	=65	=65	=65	=65
*	*Xedit	*	*	*	*	*	*
1D	De-	2.A	de	1d	de-	1r	.
.	.	4B	.	.	.	.	.
=66	=66	=66	=66	=66	=66	=66	=66
2C	-um	2.c	.	2.e	.	1r	.
2E	de	.	.	.	.	.	.
.	.	4B	.	8dL	.	.	.
.	.	.	.	8cJ	.	.	.
!!LO:LB:g=original
=67	=67	=67	=67	=67	=67	=67	=67
1G	de-	2G	.	1B	-o,	1d	De-
.	.	2B	.	.	.	.	.
=68	=68	=68	=68	=68	=68	=68	=68
*	*	*	*	*	*edit	*	*
2.A	-o,	2.c	.	4A	lu-	2c	-um
.	.	.	.	4B	.	.	.
.	.	.	.	4c	.	2e	de
4G	.	4A	.	4d	.	.	.
=69	=69	=69	=69	=69	=69	=69	=69
1E	.	2B	.	1e	.	1g	de-
.	.	2B	de-	.	.	.	.
=70	=70	=70	=70	=70	=70	=70	=70
*	*edit	*	*	*	*	*	*
2.F	lu-	1A	-o,	2c	-men	1a	-o,
.	.	.	.	[2f	de	.	.
4E	.	.	.	.	.	.	.
=71	=71	=71	=71	=71	=71	=71	=71
4D	.	1d	lu-	4f]	.	1b	lu-
4C	.	.	.	4e	.	.	.
2BB	.	.	.	2d	.	.	.
=72	=72	=72	=72	=72	=72	=72	=72
4AA	-men	2e	-men	8cL	lu-	2cc	-men
.	.	.	.	8d	.	.	.
4C	.	.	.	8e	.	.	.
.	.	.	.	8fJ	.	.	.
*	*	*	*edit	*	*	*	*
2GG	de	2d	de	2g	.	2b	de
=73	=73	=73	=73	=73	=73	=73	=73
2AA	lu-	2c	lu-	2e	.	2a	lu-
2E	-mi-	2B	-mi-	2e	-mi-	2g#i	-mi-
=74	=74	=74	=74	=74	=74	=74	=74
1AA	-ne,	2.A	-ne,	[1e	-ne,	1a	-ne,
.	.	8GL	.	.	.	.	.
.	.	8FJ	.	.	.	.	.
!!LO:LB:g=original
=75	=75	=75	=75	=75	=75	=75	=75
2C	de-	2E	.	2e]	.	2g	de-
2D	-um	4F	de-	2d	de-	2f	-um
.	.	[4A	.	.	.	.	.
=76	=76	=76	=76	=76	=76	=76	=76
*	*	*	*	*	*	*lig	*
4AA	ve-	8A]	.	4c	.	2e	ve-
.	.	8GL	.	.	.	.	.
4C	.	8E	.	8BL	.	.	.
.	.	8FJ	.	8AJ	.	.	.
2GG	.	2G	-um	2B	.	2d	.
*	*	*	*	*	*	*Xlig	*
=77	=77	=77	=77	=77	=77	=77	=77
[1AA	-rum	2.C	ve-	2.c	-um	[1c	-rum
.	.	4D	.	[4e	ve-	.	.
=78	=78	=78	=78	=78	=78	=78	=78
1AA]	.	1E	-rum	8e]	.	1c]	.
.	.	.	.	8d	.	.	.
.	.	.	.	2c	.	.	.
.	.	.	.	8BL	.	.	.
.	.	.	.	8AJ	.	.	.
=79	=79	=79	=79	=79	=79	=79	=79
1C	de	2r	.	2G	-rum	1e	de
*	*	*lig	*	*	*	*	*
*	*	*	*Xedit	*	*	*	*
.	.	2G	de	[2c	de	.	.
=80	=80	=80	=80	=80	=80	=80	=80
2F	de-	2A	.	1c]	.	2f	de-
*	*	*Xlig	*	*	*	*	*
2C	-o	2G	de-	.	.	2e	-o
=81	=81	=81	=81	=81	=81	=81	=81
4D	.	4F	-o	4B	de-	4d	ve-
*	*	*	*edit	*	*	*	*
2C	ve-	2G	ve-	4.c	.	2e	.
.	.	.	.	8B	.	.	.
4D	.	4F	.	[4A	.	4d	.
!!LO:LB:g=original
=82	=82	=82	=82	=82	=82	=82	=82
4AA	.	4E	.	4A]	.	4c#i	.
4BB	.	4D	.	4G	-o	4B	.
2AA	.	2E	.	2A	ve-	2c#i	.
=83	=83	=83	=83	=83	=83	=83	=83
1A	-ro.	[1D	-ro.	2.F	-ro.	[1d	-ro.
*	*	*	*	*	*Xedit	*	*
.	.	.	.	4D	Ge-	.	.
=84	=84	=84	=84	=84	=84	=84	=84
2r	.	1D]	.	4.F	-ni-	1d]	.
.	.	.	.	8G	.	.	.
*	*Xedit	*	*	*	*	*	*
2D	Ge-	.	.	4.A	.	.	.
.	.	.	.	8B	.	.	.
=85	=85	=85	=85	=85	=85	=85	=85
2C	-ni-	1r	.	8cL	.	1r	.
.	.	.	.	8dJ	.	.	.
.	.	.	.	4e	.	.	.
2D	-tum,	.	.	4.f	.	.	.
.	.	.	.	8e	.	.	.
=86	=86	=86	=86	=86	=86	=86	=86
*	*edit	*	*Xedit	*	*	*	*
2F	non	2A	Ge-	4c	.	1r	.
.	.	.	.	2d	.	.	.
2E	.	2G	-ni-	.	.	.	.
.	.	.	.	4c#i	.	.	.
=87	=87	=87	=87	=87	=87	=87	=87
*lig	*	*	*	*	*	*	*
2D	fa-	2A	-tum,	1d	-tum,	2a	Ge-
*	*	*	*edit	*	*	*	*
2BB	.	2B	non	.	.	2g	-ni-
*Xlig	*	*	*	*	*	*	*
=88	=88	=88	=88	=88	=88	=88	=88
*	*	*	*	*	*edit	*	*
2AA	.	2c	fa-	1e	non	2a	-tum,
2E	.	2G	.	.	.	2b	non
=89	=89	=89	=89	=89	=89	=89	=89
1AA	-ctum,	1A	-ctum,	4.c	fa-	1cc	fa-
.	.	.	.	8d	.	.	.
.	.	.	.	8eL	.	.	.
.	.	.	.	8fJ	.	.	.
.	.	.	.	[4e	.	.	.
!!LO:LB:g=original
=90	=90	=90	=90	=90	=90	=90	=90
*	*	*	*	*	*	*lig	*
2r	.	2c	con-	4e]	.	2a	-ctum,
.	.	.	.	8dL	.	.	.
.	.	.	.	8cJ	.	.	.
2E	con-	2B	-sub-	8gL	.	2g	.
.	.	.	.	8f	.	.	.
.	.	.	.	8e	.	.	.
.	.	.	.	8dJ	.	.	.
*	*	*	*	*	*	*Xlig	*
=91	=91	=91	=91	=91	=91	=91	=91
2F	-sub-	4.A	-stan-	4c	-ctum,	2a	con-
.	.	.	.	2f	con-	.	.
.	.	8G	.	.	.	.	.
2D	-stan-	2F	-ti-	.	.	2a	-sub-
.	.	.	.	[4d	-sub-	.	.
=92	=92	=92	=92	=92	=92	=92	=92
2G	-ti-	2E	-a-	4d]	.	2g	-stan-
.	.	.	.	4c#j	.	.	.
2A	-a-	2D	-lem	[2d	-stan-	2f	-ti-
=93	=93	=93	=93	=93	=93	=93	=93
1AA	-lem	1A	pa-	4d]	.	1e	-a-
.	.	.	.	4B	-ti-	.	.
.	.	.	.	2c#i	-a-	.	.
=94	=94	=94	=94	=94	=94	=94	=94
2r	.	1B-X	.	1d	-lem	1d	-lem
2GG	pa-	.	.	.	.	.	.
=95	=95	=95	=95	=95	=95	=95	=95
4.AA	.	2A	.	2r	.	2c	pa-
8BB	.	.	.	.	.	.	.
2C	.	2G	.	2c	pa-	[2e	.
=96	=96	=96	=96	=96	=96	=96	=96
1D	.	1F	.	2.A	.	4e]	.
.	.	.	.	.	.	8dL	.
.	.	.	.	.	.	8cJ	.
.	.	.	.	.	.	2d	.
.	.	.	.	4B	.	.	.
!!LO:LB:g=original
=97	=97	=97	=97	=97	=97	=97	=97
[1AA	-tri,	[1E	-tri,	[1c	-tri,	[1e	-tri,
=98	=98	=98	=98	=98	=98	=98	=98
1AA]	.	1E_	.	2c]	.	1e]	.
.	.	.	.	4.c	per	.	.
.	.	.	.	8d	.	.	.
=99	=99	=99	=99	=99	=99	=99	=99
*	*Xedit	*	*	*	*	*	*
2.C	per	1E]	.	8eL	.	1e	per
.	.	.	.	8fJ	.	.	.
.	.	.	.	2g	.	.	.
*	*	*	*	*	*Xedit	*	*
4D	.	.	.	[4e	quem	.	.
=100	=100	=100	=100	=100	=100	=100	=100
1E	quem	2r	.	4e]	.	1g	quem
*	*	*	*	*	*edit	*	*
.	.	.	.	8dL	o-	.	.
.	.	.	.	8cJ	.	.	.
*	*	*	*Xedit	*	*	*	*
.	.	2E	per	2B	-mni-	.	.
=101	=101	=101	=101	=101	=101	=101	=101
2r	.	4.F	quem	1A	-a	1a	o-
.	.	8G	.	.	.	.	.
*	*edit	*	*	*	*	*	*
4.F	o-	8AL	.	.	.	.	.
.	.	8BJ	.	.	.	.	.
*	*	*	*edit	*	*	*	*
.	.	[4c	o-	.	.	.	.
8G	.	.	.	.	.	.	.
=102	=102	=102	=102	=102	=102	=102	=102
4A	.	4c]	.	1r	.	2a	-mni-
4D	-mni-	4d	.	.	.	.	.
2G	-a	2B-j	-mni-	.	.	2d	-a
=103	=103	=103	=103	=103	=103	=103	=103
1D	fa-cta	2A	-a	2r	.	1f	fa-
.	.	[2d	fa-	[2A	fa-	.	.
!!LO:LB:g=original
=104	=104	=104	=104	=104	=104	=104	=104
1AA	sunt.	2d]	.	2A]	.	1e	-cta
.	.	2c#i	-cta	2A	-cta	.	.
=105	=105	=105	=105	=105	=105	=105	=105
1r	.	1d	sunt.	2.B-X	sunt.	1d	sunt.
.	.	.	.	8AL	.	.	.
.	.	.	.	8GJ	.	.	.
=106	=106	=106	=106	=106	=106	=106	=106
*	*Xedit	*	*	*	*	*	*
2AA	Qui	1r	.	2F	.	1r	.
2GG	pro-	.	.	2G	.	.	.
=107	=107	=107	=107	=107	=107	=107	=107
*	*	*	*Xedit	*	*	*	*
2AA	-pter	2A	Qui	4r	.	1r	.
*	*	*	*	*	*Xedit	*	*
.	.	.	.	2E	Qui	.	.
2BB	nos	2G	pro-	.	.	.	.
.	.	.	.	4D	.	.	.
=108	=108	=108	=108	=108	=108	=108	=108
*	*edit	*	*	*	*	*	*
2C	ho-	2A	-pter	4E	.	2a	Qui
.	.	.	.	2e	pro-	.	.
*	*	*	*edit	*	*	*	*
2BB	-mi-	2B	nos	.	.	2g	pro-
.	.	.	.	4d	.	.	.
=109	=109	=109	=109	=109	=109	=109	=109
*lig	*	*	*	*	*	*	*
2AA	-nes,	2c	ho-	4e	-pter	2a	-pter
.	.	.	.	2a	nos	.	.
2E	.	2B	-mi-	.	.	2b	nos
.	.	.	.	4g#i	.	.	.
*Xlig	*	*	*	*	*	*	*
=110	=110	=110	=110	=110	=110	=110	=110
*	*	*	*	*	*edit	*	*
4r	.	2A	-nes,	4a	ho-	2cc	ho-
2A	ho-	.	.	2.e	-mi-	.	.
.	.	2E	et	.	.	2b	-mi-
4G#i	-mi-	.	.	.	.	.	.
=111	=111	=111	=111	=111	=111	=111	=111
4A	-nes,	4.F	pro-	2c	-nes,	1a	-nes,
*	*Xedit	*	*	*	*	*	*
4.F	et	.	.	.	.	.	.
.	.	8E	.	.	.	.	.
.	.	8DL	.	4d	.	.	.
8EL	.	8CJ	.	.	.	.	.
*	*	*	*	*	*Xedit	*	*
8D	.	4D	.	[4f	et	.	.
8CJ	.	.	.	.	.	.	.
!!LO:LB:g=original
=112	=112	=112	=112	=112	=112	=112	=112
4D	.	2F	.	4f]	.	1a	et
8CL	.	.	.	8eL	.	.	.
8BBJ	.	.	.	8dJ	.	.	.
2AA	.	2E	.	2c	.	.	.
=113	=113	=113	=113	=113	=113	=113	=113
2AA	pro-	2.E	-pter	2c	pro-	2a	pro-
2AA	-pter	.	.	2c	-pter	2a	-pter
.	.	[4A	no-	.	.	.	.
=114	=114	=114	=114	=114	=114	=114	=114
1AA	no-	8A]	.	1c	no-	1a	no-
.	.	8GL	.	.	.	.	.
.	.	8F#i	.	.	.	.	.
.	.	8EJ	.	.	.	.	.
.	.	2F#i	.	.	.	.	.
=115	=115	=115	=115	=115	=115	=115	=115
1GG	-stram	4.G	-stram	1B	-stram	1d	-stram
.	.	8F	.	.	.	.	.
.	.	2D	.	.	.	.	.
=116	=116	=116	=116	=116	=116	=116	=116
*	*	*	*	*	*edit	*	*
1r	.	2C	.	4.c	sa-	1e	sa-
.	.	.	.	8B	.	.	.
.	.	2c	sa-	8AL	.	.	.
.	.	.	.	8GJ	.	.	.
.	.	.	.	[4A	.	.	.
=117	=117	=117	=117	=117	=117	=117	=117
1r	.	1A	-lu-	8A]	.	1f	-lu-
.	.	.	.	8GL	.	.	.
.	.	.	.	8F	.	.	.
.	.	.	.	8EJ	.	.	.
.	.	.	.	2D	.	.	.
=118	=118	=118	=118	=118	=118	=118	=118
*	*edit	*	*	*	*	*	*
4.GG	sa-	1G	-tem,	4.d	-lu-	1g	-tem,
8AA	.	.	.	8c	.	.	.
4BB	.	.	.	4d	.	.	.
[4C	-lu-	.	.	[4e	.	.	.
!!LO:LB:g=original
=119	=119	=119	=119	=119	=119	=119	=119
*	*	*	*Xedit	*	*	*	*
8C]	.	2E	de-	8e]	.	2g	de-
8D	.	.	.	8B	.	.	.
4E	.	.	.	4c	.	.	.
2F	-tem,	2D	-scen-	4.d	.	2a	-scen-
.	.	.	.	8f	.	.	.
=120	=120	=120	=120	=120	=120	=120	=120
2C	de-	2G	-dit	2e	-tem	2g	-dit
2D	-scen-	4r	.	2d	de-	2f	de
*	*	*	*edit	*	*	*	*
.	.	[4A	de	.	.	.	.
=121	=121	=121	=121	=121	=121	=121	=121
2AA	-dit	2A]	.	4.c	-scen-	2e	ce-
.	.	.	.	8B	.	.	.
4r	.	4F	.	8AL	.	2d	.
.	.	.	.	8GJ	.	.	.
4D	de	4D	.	4F	.	.	.
=122	=122	=122	=122	=122	=122	=122	=122
4C	.	4G	.	4E	-dit	4e	.
4D	.	4F	.	4F	.	2d	.
2BB-j	.	2D	.	2G	de	.	.
.	.	.	.	.	.	8c#iL	.
.	.	.	.	.	.	8BJ	.
=123	=123	=123	=123	=123	=123	=123	=123
*	*	*lig	*	*	*	*	*
1AA	ce-	1E	ce-	1A	ce-	4c#i	.
.	.	.	.	.	.	2d	.
.	.	.	.	.	.	4c#i	.
=124	=124	=124	=124	=124	=124	=124	=124
1Dl	-lis.	1Dl	-lis.	1Al	-lis.	1dl	-lis.
*	*	*Xlig	*	*	*	*	*
!!LO:LB:g=original
=125||	=125||	=125||	=125||	=125||	=125||	=125||	=125||
*M2/2	*	*M2/2	*	*M2/2	*	*M2/2	*
*met(C|)	*	*met(C|)	*	*met(C|)	*	*met(C|)	*
*	*	*	*Xedit	*	*Xedit	*	*
1r	.	1D	Et	1d	Et	1r	.
=126	=126	=126	=126	=126	=126	=126	=126
1r	.	2E	in-	2c	in-	1r	.
.	.	2F	-car-	2d	-car-	.	.
=127	=127	=127	=127	=127	=127	=127	=127
*	*Xedit	*	*	*	*	*	*
1GG	Et	2G	-na-	2B	-na-	1dd	Et
.	.	2G	-tus	2B	-tus	.	.
=128	=128	=128	=128	=128	=128	=128	=128
*	*	*lig	*	*	*	*	*
2AA	in-	2E	est	2A	est	2cc	in-
2BB	-car-	2D	.	2d	.	2dd	-car-
*	*	*Xlig	*	*	*	*	*
=129	=129	=129	=129	=129	=129	=129	=129
2C	-na-	2.G	.	4e	.	2cc	-na-
.	.	.	.	4c	.	.	.
2GG	-tus	.	.	2d	.	2b	-tus
.	.	4F	.	.	.	.	.
=130	=130	=130	=130	=130	=130	=130	=130
1AA;	est	1E;	.	1c;	.	1a;	est
=131	=131	=131	=131	=131	=131	=131	=131
2AA	de	2E	de	2c	de	2a	de
2AA	spi-	2E	spi-	2c	spi-	2cc	spi-
=132	=132	=132	=132	=132	=132	=132	=132
2GG	-ri-	2G	-ri-	2d	-ri-	2b	-ri-
2D	-tu	2F	-tu	2f	-tu	2a	-tu
=133	=133	=133	=133	=133	=133	=133	=133
*	*edit	*	*	*	*edit	*	*
1AA	san-	1A	san-	1e	san-	1cc	san-
!!LO:LB:g=original
=134	=134	=134	=134	=134	=134	=134	=134
1D;	-cto	1A;	-cto	1d;	-cto	1dd;	-cto
=135	=135	=135	=135	=135	=135	=135	=135
*	*Xedit	*	*	*	*Xedit	*	*
2AA	ex	2A	ex	2e	ex	2cc	ex
2GG	Ma-	2D	Ma-	2g	Ma-	2b	Ma-
=136	=136	=136	=136	=136	=136	=136	=136
*lig	*	*lig	*	*lig	*	*	*
2D	-ri-	2F	-ri-	2f	-ri-	1a	-ri-
2F	.	2A	.	2d	.	.	.
*	*	*	*	*Xlig	*	*	*
*Xlig	*	*Xlig	*	*	*	*	*
=137	=137	=137	=137	=137	=137	=137	=137
1E	-a	2B	-a	1e	-a	1g	-a
.	.	2c	.	.	.	.	.
=138	=138	=138	=138	=138	=138	=138	=138
*	*edit	*	*edit	*	*edit	*	*
2D	vir-	2d	vir-	2A	vir-	2f	vir-
2F	-gi-	2c	-gi-	2A	-gi-	2a	-gi-
=139	=139	=139	=139	=139	=139	=139	=139
1C;	-ne:	1c;	-ne:	1e;	-ne:	1g;	-ne:
=140	=140	=140	=140	=140	=140	=140	=140
*	*Xedit	*	*Xedit	*	*Xedit	*	*
1F	et	1c	et	1f	et	1a	et
=141	=141	=141	=141	=141	=141	=141	=141
2C	ho-	2c	ho-	2e	ho-	2g	ho-
2F	-mo	2c	-mo	2f	-mo	2a	-mo
=142	=142	=142	=142	=142	=142	=142	=142
*	*edit	*	*edit	*	*edit	*	*
2C	fa-	2c	fa-	2e	fa-	2g	fa-
2D	-ctus	2A	-ctus	2d	-ctus	2f	-ctus
!!LO:LB:g=original
=143	=143	=143	=143	=143	=143	=143	=143
[1AA;	est.	[1A;	est.	[1c;	est.	[1e;	est.
=144	=144	=144	=144	=144	=144	=144	=144
1AA]	.	1A]	.	1c]	.	1e]	.
=145	=145	=145	=145	=145	=145	=145	=145
*	*Xedit	*	*Xedit	*	*Xedit	*	*
1D	Cru-	1A	Cru-	1f	Cru-	1d	Cru-
=146	=146	=146	=146	=146	=146	=146	=146
*lig	*	*lig	*	*	*	*	*
2AA	-ci-	2A	-ci-	1e	-ci-	1c	-ci-
2C	.	2E	.	.	.	.	.
*Xlig	*	*Xlig	*	*	*	*	*
=147	=147	=147	=147	=147	=147	=147	=147
*lig	*	*	*	*lig	*	*lig	*
2BB-j	-fi-	2G	-fi-	2d	-fi-	2d	-fi-
2AA	.	2A	.	2c	.	2e	.
*	*	*	*	*Xlig	*	*Xlig	*
*Xlig	*	*	*	*	*	*	*
=148	=148	=148	=148	=148	=148	=148	=148
*	*	*	*	*	*	*lig	*
1D	.	4F	.	1d	.	2f	.
.	.	4G	.	.	.	.	.
.	.	4A	.	.	.	2d	.
.	.	4B	.	.	.	.	.
*	*	*	*	*	*	*Xlig	*
=149	=149	=149	=149	=149	=149	=149	=149
1C	-xus	1c	-xus	1G	-xus	1e	-xus
=150	=150	=150	=150	=150	=150	=150	=150
*	*edit	*	*edit	*	*edit	*	*
2C	e-	2c	e-	2e	e-	2g	e-
2AA	-ti-	2c	-ti-	2e	-ti-	2a	-ti-
=151	=151	=151	=151	=151	=151	=151	=151
2GG	-am	2B	-am	2g	-am	2b	-am
2AA	pro	2A	pro	4.e	pro	2cc	pro
.	.	.	.	8f	.	.	.
!!LO:LB:g=original
=152	=152	=152	=152	=152	=152	=152	=152
*	*	*	*	*	*	*lig	*
2E	no-	2G	no-	8gL	no-	2b	no-
.	.	.	.	8f	.	.	.
.	.	.	.	8e	.	.	.
.	.	.	.	8dJ	.	.	.
2F	.	2A	.	4c	.	2a	.
.	.	.	.	8BL	.	.	.
.	.	.	.	8AJ	.	.	.
*	*	*	*	*	*	*Xlig	*
=153	=153	=153	=153	=153	=153	=153	=153
4G	.	4d	.	4G	.	4b	.
4A	.	4c	.	2.e	-bis;	2a	.
2E	.	2B	.	.	.	.	.
.	.	.	.	.	.	4g#i	.
=154	=154	=154	=154	=154	=154	=154	=154
*	*	*	*	*	*Xedit	*	*
1F	-bis;	1A	-bis;	2.c	sub	[1a	-bis;
.	.	.	.	4d	.	.	.
=155	=155	=155	=155	=155	=155	=155	=155
2r	.	1r	.	4e	.	1a]	.
.	.	.	.	2f	Pon-	.	.
*	*Xedit	*	*	*	*	*	*
[2A	sub	.	.	.	.	.	.
.	.	.	.	8eL	.	.	.
.	.	.	.	8dJ	.	.	.
=156	=156	=156	=156	=156	=156	=156	=156
*	*	*	*Xedit	*	*	*	*
2A]	.	1A	sub	2c	-ti-	1r	.
2D	.	.	.	2d	-o	.	.
=157	=157	=157	=157	=157	=157	=157	=157
2BB-X	Pon-	2D	Pon-	4r	.	1r	.
*	*	*	*	*	*edit	*	*
.	.	.	.	4d	Pi-	.	.
2AA	-ti-	2E	-ti-	8cL	.	.	.
.	.	.	.	8B	.	.	.
.	.	.	.	8A	.	.	.
.	.	.	.	8GJ	.	.	.
=158	=158	=158	=158	=158	=158	=158	=158
2D	-o	2F	-o	4A	.	1r	.
.	.	.	.	2d	.	.	.
*	*edit	*	*edit	*	*	*	*
4GG	Pi-	2G	Pi-	.	.	.	.
[4C	-la-	.	.	[4e	.	.	.
!!LO:LB:g=original
=159	=159	=159	=159	=159	=159	=159	=159
*	*	*lig	*	*	*	*	*
8C]	.	2E	-la-	4e]	.	1r	.
8BB	.	.	.	.	.	.	.
4C	.	.	.	2c	-la-	.	.
2GG	.	2D	.	.	.	.	.
.	.	.	.	4B	.	.	.
*	*	*Xlig	*	*	*	*	*
=160	=160	=160	=160	=160	=160	=160	=160
1G	-to	1C	-to	4.c	-to	1r	.
.	.	.	.	8B	.	.	.
.	.	.	.	2G	.	.	.
=161	=161	=161	=161	=161	=161	=161	=161
*	*	*	*Xedit	*	*Xedit	*	*
1r	.	2D	pas-	4.F	pas-	2f	pas-
.	.	.	.	8G	.	.	.
.	.	2C	-sus	8AL	.	2e	-sus
.	.	.	.	8BJ	.	.	.
.	.	.	.	4c	.	.	.
=162	=162	=162	=162	=162	=162	=162	=162
*	*	*	*edit	*	*	*	*
2r	.	2D	et	2A	-sus	2f	et
*	*	*	*	*	*edit	*	*
2GG	se-	2G	se-	2B-j	et	2d	se-
=163	=163	=163	=163	=163	=163	=163	=163
2.C	-pul-	2.G	-pul-	4G	se-	2.e	-pul-
.	.	.	.	2c	-pul-	.	.
4D	.	4F	.	4B-j	.	4d	.
=164	=164	=164	=164	=164	=164	=164	=164
4AA	-tus	4E	.	4A	.	4c#i	.
4BB	.	4D	.	4G	.	4B	.
2AA	est.	2E	-tus	2A	-tus	2c#i	-tus
=165	=165	=165	=165	=165	=165	=165	=165
2r	.	[1D	est.	1F	est.	1d	est.
*	*Xedit	*	*	*	*	*	*
2A	Et	.	.	.	.	.	.
=166	=166	=166	=166	=166	=166	=166	=166
*	*	*	*	*	*Xedit	*	*
4.F	re-	1D]	.	2A	Et	2r	.
8G	.	.	.	.	.	.	.
2A	.	.	.	4.F	re-	2a	Et
.	.	.	.	8G	.	.	.
!!LO:LB:g=original
=167	=167	=167	=167	=167	=167	=167	=167
*	*	*	*Xedit	*	*	*	*
4.D	-sur-	1d	Et	2A	.	4.f	re-
8E	.	.	.	.	.	8g	.
4F	.	.	.	2D	-sur-	4a	.
4G	.	.	.	.	.	4b	.
=168	=168	=168	=168	=168	=168	=168	=168
4A	.	2c	re-	8FL	-re-	2.cc	.
.	.	.	.	8G	.	.	.
2F	.	.	.	8A	.	.	.
.	.	.	.	8BJ	.	.	.
.	.	2A	-sur-	4.c	.	.	.
8EL	.	.	.	.	.	[4cc	-sur-
8DJ	.	.	.	8d	.	.	.
=169	=169	=169	=169	=169	=169	=169	=169
4C	.	1c	-re-	4e	.	4cc]	.
4F	.	.	.	4f	.	8b-jL	.
.	.	.	.	.	.	8aJ	.
2E	-re-	.	.	4g	.	2g	-re-
.	.	.	.	4G	-xit	.	.
=170	=170	=170	=170	=170	=170	=170	=170
*	*	*	*	*	*edit	*	*
2D	-xit	1d	-xit	2.A	ter-	2f	-xit
4r	.	.	.	.	.	4r	.
*	*edit	*	*	*	*	*	*
4D	ter-	.	.	4B	.	4f	ter-
=171	=171	=171	=171	=171	=171	=171	=171
4C	-ti-	2A	ter-	4c	.	4e	-ti-
2D	-a	.	.	2F	-ti-	2f	-a
.	.	2B	.	.	.	.	.
8CL	.	.	.	4G	.	8eL	.
8BBJ	.	.	.	.	.	8dJ	.
=172	=172	=172	=172	=172	=172	=172	=172
2AA	.	2c	.	2A	-a	8cL	.
.	.	.	.	.	.	8d	.
.	.	.	.	.	.	8e	.
.	.	.	.	.	.	8fJ	.
4.GG	di-	2B	-ti-	[2d	di-	4.g	.
8AA	.	.	.	.	.	8f	.
=173	=173	=173	=173	=173	=173	=173	=173
*	*	*lig	*	*	*	*	*
8BBL	.	2B	-a	2d]	.	4d	.
8CJ	.	.	.	.	.	.	.
2D	.	.	.	.	.	2f	di-
.	.	2A	.	4D	.	.	.
4C	.	.	.	4E	.	4e	.
*	*	*Xlig	*	*	*	*	*
!!LO:LB:g=original
=174	=174	=174	=174	=174	=174	=174	=174
4D	.	4B	di-	4F	.	4d	.
4AA	.	2A	.	2E	.	4c	.
2BB	.	.	.	.	.	2d	.
.	.	4G#i	.	4D	.	.	.
=175	=175	=175	=175	=175	=175	=175	=175
1AA	-e	1A	-e	2E	-e	1c	-e
.	.	.	.	[2e	se-	.	.
=176	=176	=176	=176	=176	=176	=176	=176
*	*Xedit	*	*	*	*	*	*
2E	se-	1r	.	2e]	.	2g	se-
*	*	*	*	*	*Xedit	*	*
2F	-cun-	.	.	4.c	-cun-	2a	-cun-
.	.	.	.	8d	.	.	.
=177	=177	=177	=177	=177	=177	=177	=177
4C	-dum	2G	se-	4e	-dum	2g	-dum
4E	.	.	.	4c	.	.	.
4D	.	2A	-cun-	4d	.	2f	scri-
*	*	*	*	*	*edit	*	*
4F	.	.	.	[4c	scri-	.	.
=178	=178	=178	=178	=178	=178	=178	=178
*	*edit	*	*	*	*	*	*
2C	scri-	2G	-dum	8c]	.	2e	-ptu-
.	.	.	.	8d	.	.	.
.	.	.	.	4e	.	.	.
*	*	*	*edit	*	*	*	*
2D	-ptu-	2F	scri-	[2A	.	2d	.
=179	=179	=179	=179	=179	=179	=179	=179
1AA	-ras.	1E	-ptu-	2A]	.	4e	.
.	.	.	.	.	.	2d	.
.	.	.	.	2A	-ras.	.	.
.	.	.	.	.	.	4c#i	.
=180	=180	=180	=180	=180	=180	=180	=180
*	*Xedit	*	*	*	*	*	*
1A	Et	[1D	-ras.	1r	.	[1d	-ras.
!!LO:LB:g=original
=181	=181	=181	=181	=181	=181	=181	=181
*	*	*	*	*	*Xedit	*	*
2F	a-	1D]	.	1A	Et	1d]	.
2D	.	.	.	.	.	.	.
=182	=182	=182	=182	=182	=182	=182	=182
*lig	*	*	*	*	*	*	*
2G	-scen-	2r	.	2B	a-	1r	.
*	*	*	*Xedit	*	*	*	*
2E	.	2G	Et	2c	.	.	.
*Xlig	*	*	*	*	*	*	*
=183	=183	=183	=183	=183	=183	=183	=183
*	*	*	*	*lig	*	*	*
2D	.	4A	a-	2d	-scen-	1d	Et
.	.	4F	.	.	.	.	.
2GG	.	[2G	-scen-	2B	.	.	.
*	*	*	*	*Xlig	*	*	*
=184	=184	=184	=184	=184	=184	=184	=184
*lig	*	*	*	*	*	*lig	*
2C	-dit	4G]	.	2c	-dit	2e	a-
.	.	4E	.	.	.	.	.
*	*	*	*	*	*edit	*	*
2D	.	4D	.	2A	in	2f	.
.	.	4F	.	.	.	.	.
*Xlig	*	*	*	*	*	*Xlig	*
=185	=185	=185	=185	=185	=185	=185	=185
2.E	.	2C	-dit	4.G	ce-	1g	-scen-
.	.	.	.	8A	.	.	.
.	.	2r	.	4B	.	.	.
4C	.	.	.	[4c	.	.	.
=186	=186	=186	=186	=186	=186	=186	=186
*	*	*	*edit	*	*	*	*
2E	.	2C	in	8c]	.	2g	-dit
.	.	.	.	8B	.	.	.
.	.	.	.	4c	.	.	.
*	*edit	*	*	*	*	*	*
2D	in	4F	.	4d	.	2f	in
.	.	4D	.	4f	.	.	.
=187	=187	=187	=187	=187	=187	=187	=187
4.C	ce-	4.E	ce-	4e	.	1g	ce-
.	.	.	.	8dL	.	.	.
8D	.	8F	.	8cJ	.	.	.
2E	.	4G	.	2B	-lum;	.	.
.	.	4E	.	.	.	.	.
!!LO:LB:g=original
=188	=188	=188	=188	=188	=188	=188	=188
*	*	*	*	*lig	*	*	*
*	*	*	*	*	*Xedit	*	*
1AA	-lum;	1E	-lum;	2A	se-	1a	-lum;
.	.	.	.	2e	.	.	.
*	*	*	*	*Xlig	*	*	*
=189	=189	=189	=189	=189	=189	=189	=189
*	*Xedit	*	*Xedit	*	*	*	*
2AA	se-	4.A	se-	4.c	.	1a	se-
.	.	8G	.	8d	.	.	.
4C	.	4E	.	4e	.	.	.
4D	.	4F	.	[4d	-det	.	.
=190	=190	=190	=190	=190	=190	=190	=190
2GG	-det	4D	.	4d]	.	2b	-det
.	.	2G	-det	4B	.	.	.
*	*edit	*	*	*	*edit	*	*
2AA	ad	.	.	2A	ad	2cc	ad
*	*	*	*edit	*	*	*	*
.	.	4F#i	ad	.	.	.	.
=191	=191	=191	=191	=191	=191	=191	=191
2GG	dex-	2G	dex-	4r	.	2b	dex-
.	.	.	.	2g	dex-	.	.
2D	-te-	2A	-te-	.	.	2a	-te-
.	.	.	.	4f#i	-te-	.	.
=192	=192	=192	=192	=192	=192	=192	=192
4.GG	-ram	1G	-ram	2g	-ram	1b	-ram
8AA	.	.	.	.	.	.	.
4BB	.	.	.	4d	.	.	.
4GG	.	.	.	[4e	.	.	.
=193	=193	=193	=193	=193	=193	=193	=193
*	*Xedit	*	*	*	*	*	*
4.C	pa-	2r	.	4e]	.	1g	pa-
.	.	.	.	8dL	.	.	.
8D	.	.	.	8cJ	.	.	.
*	*	*	*Xedit	*	*	*	*
2E	.	2B	pa-	2B	.	.	.
=194	=194	=194	=194	=194	=194	=194	=194
*	*	*	*	*	*Xedit	*	*
[1AA;	-tris.	2.c	.	2.A	pa-	[1a;	-tris.
.	.	4A	.	4B	.	.	.
!!LO:LB:g=original
=195	=195	=195	=195	=195	=195	=195	=195
1AA_	.	1A	.	[1c;	-tris.	1a_	.
=196	=196	=196	=196	=196	=196	=196	=196
1AA]	.	1E;	-tris.	1c]	.	1a]	.
=197	=197	=197	=197	=197	=197	=197	=197
2r	.	1d	Et	1f	Et	2.a	Et
2D	Et	.	.	.	.	.	.
.	.	.	.	.	.	[4b-i	i-
=198	=198	=198	=198	=198	=198	=198	=198
2F	i-	2c	i-	2f	i-	8b-]	.
.	.	.	.	.	.	8a	.
.	.	.	.	.	.	2a	-te-
2G	-te-	2B-j	-te-	2d	-te-	.	.
.	.	.	.	.	.	4g	.
=199	=199	=199	=199	=199	=199	=199	=199
2D	-rum	2A	-rum	2d	-rum	2a	-rum
*	*	*	*	*	*edit	*	*
4r	.	2G	ven-	2B	ven-	4.d	ven-
*	*edit	*	*	*	*	*	*
4G	ven-	.	.	.	.	.	.
.	.	.	.	.	.	8e	.
=200	=200	=200	=200	=200	=200	=200	=200
4D	-tu-	2F	-tu-	4d	-tu-	8fL	.
.	.	.	.	.	.	8gJ	.
4F	-rus	.	.	4d	-rus	4a	.
2E	est	2G	-rus	2e	est	8gL	-tu-
.	.	.	.	.	.	8f	.
.	.	.	.	.	.	8e	.
.	.	.	.	.	.	8dJ	.
=201	=201	=201	=201	=201	=201	=201	=201
4.AA	cum	2A	est	4r	.	4c	-rus
*	*	*	*	*	*Xedit	*	*
.	.	.	.	2e	cum	2cc	est
8BB	.	.	.	.	.	.	.
8CL	.	2G	cum	.	.	.	.
8DJ	.	.	.	.	.	.	.
4E	.	.	.	[4e	glo-	[4b	cum
!!LO:LB:g=original
=202	=202	=202	=202	=202	=202	=202	=202
2F	glo-	2A	glo-	4e]	.	4b]	.
.	.	.	.	4d	-ri-	2a	glo-
2E	-ri-	2B	-ri-	2e	-a	.	.
.	.	.	.	.	.	4g#i	-ri-
=203	=203	=203	=203	=203	=203	=203	=203
2.F	-a	2.A	-a	2r	.	1a	-a
*	*	*	*	*	*edit	*	*
.	.	.	.	4.c	ju-	.	.
8EL	.	8GL	.	.	.	.	.
8DJ	.	8FJ	.	8d	.	.	.
=204	=204	=204	=204	=204	=204	=204	=204
4C	.	4E	.	4e	.	1a	ju-
4D	.	2F	ju-	4A	-di-	.	.
4AA	.	.	.	2c	-ca-	.	.
4C	.	[4E	.	.	.	.	.
=205	=205	=205	=205	=205	=205	=205	=205
2BB	ju-	4E]	.	4d	.	2g	-di-
.	.	4D	.	4B	.	.	.
2AA	-di-	2E	-di-	4.c	.	2a	.
.	.	.	.	8B	.	.	.
=206	=206	=206	=206	=206	=206	=206	=206
*	*	*	*	*	*	*lig	*
2E	-ca-	4C	.	2G	-re,	2g	-ca-
.	.	2c	-ca-	.	.	.	.
2D	.	.	.	4r	.	2f	.
.	.	4B	.	4F	ju-	.	.
*	*	*	*	*	*	*Xlig	*
=207	=207	=207	=207	=207	=207	=207	=207
1C	-re	1c	-re	4G	-di-	[1e	-re
.	.	.	.	4A	.	.	.
.	.	.	.	4G	.	.	.
.	.	.	.	[4c	-ca-	.	.
=208	=208	=208	=208	=208	=208	=208	=208
1r	.	1A	vi-	8c]	.	1e]	.
.	.	.	.	8d	.	.	.
.	.	.	.	2e	.	.	.
.	.	.	.	8dL	.	.	.
.	.	.	.	8cJ	.	.	.
!!LO:LB:g=original
=209	=209	=209	=209	=209	=209	=209	=209
*	*Xedit	*	*	*	*	*	*
1E	vi-	2G	-vos	2B	.	1r	.
*	*	*	*edit	*	*	*	*
.	.	2B	et	2G	-re	.	.
=210	=210	=210	=210	=210	=210	=210	=210
1D	-vos	1d	mor-	4r	.	1d	vi-
*	*	*	*	*	*Xedit	*	*
.	.	.	.	2F	vi-	.	.
.	.	.	.	4G	.	.	.
=211	=211	=211	=211	=211	=211	=211	=211
*	*edit	*	*	*	*	*	*
4.AA	et	2.e	.	2A	-vos	2c	-vos
8BB	.	.	.	.	.	.	.
*	*	*	*	*	*edit	*	*
4.C	.	.	.	2E	et	2e	et
.	.	8dL	.	.	.	.	.
8D	.	8cJ	.	.	.	.	.
=212	=212	=212	=212	=212	=212	=212	=212
2E	.	2B	.	4.e	mor-	2g	mor-
.	.	.	.	8d	.	.	.
4.F	mor-	4A	.	8cL	.	[2a	.
.	.	.	.	8BJ	.	.	.
.	.	[4c	.	[4A	-tu-	.	.
8G	.	.	.	.	.	.	.
=213	=213	=213	=213	=213	=213	=213	=213
4A	.	4c]	.	4A]	.	4a]	.
4D	.	4d	.	4f	.	8g#iL	.
.	.	.	.	.	.	8f#iJ	.
2E	-tu-	2B	-tu-	2e	-os;	2g#i	-tu-
=214	=214	=214	=214	=214	=214	=214	=214
*	*	*	*	*	*Xedit	*	*
4.AA	-os;	1A	-os;	4.c	cu-	[1a	-os;
8BB	.	.	.	8d	.	.	.
8CL	.	.	.	8eL	.	.	.
8DJ	.	.	.	8fJ	.	.	.
4C	.	.	.	4e	.	.	.
=215	=215	=215	=215	=215	=215	=215	=215
4D	.	1r	.	4.f	-jus	1a]	.
8CL	.	.	.	.	.	.	.
8BBJ	.	.	.	8e	.	.	.
2AA	.	.	.	4c	.	.	.
.	.	.	.	4A	.	.	.
!!LO:LB:g=original
=216	=216	=216	=216	=216	=216	=216	=216
*	*Xedit	*	*Xedit	*	*	*	*
4.AA	cu-	2A	cu-	4.c	re-	1r	.
8BB	.	.	.	8d	.	.	.
8CL	.	2G	-jus	8eL	.	.	.
8DJ	.	.	.	8fJ	.	.	.
4E	-jus	.	.	4g	.	.	.
=217	=217	=217	=217	=217	=217	=217	=217
4C	re-	2A	re-	4.e	.	1r	.
4AA	.	.	.	.	.	.	.
.	.	.	.	8c	.	.	.
2GG	-gni	2B	-gni	2d	-gni	.	.
=218	=218	=218	=218	=218	=218	=218	=218
*	*	*	*edit	*	*	*	*
2r	.	1c	non	4c	non	1r	.
.	.	.	.	2e	.	.	.
*	*edit	*	*	*	*	*	*
2AA	non	.	.	.	.	.	.
.	.	.	.	8dL	.	.	.
.	.	.	.	8cJ	.	.	.
=219	=219	=219	=219	=219	=219	=219	=219
8GGL	e-	2B	e-	4.d	.	1r	.
8AA	.	.	.	.	.	.	.
8BB	.	.	.	.	.	.	.
8CJ	.	.	.	8e	.	.	.
[2D	.	2A	-rit	8fL	.	.	.
.	.	.	.	8e	.	.	.
.	.	.	.	8d	.	.	.
.	.	.	.	8cJ	.	.	.
=220	=220	=220	=220	=220	=220	=220	=220
4D]	.	4B	fi-	8dL	.	2r	.
.	.	.	.	8c	.	.	.
4F	.	2A	.	8B	.	.	.
.	.	.	.	8AJ	.	.	.
2E	-rit	.	.	2B	.	2e	non
.	.	4G#i	.	.	.	.	.
=221	=221	=221	=221	=221	=221	=221	=221
*	*Xedit	*	*	*	*	*	*
4.AA	fi-	[1A;l	-nis.	4.A	e-	4.c	e-
8BB	.	.	.	8G	.	8d	.
4C	.	.	.	4E	.	4e	.
4D	.	.	.	4D	.	4f	.
=222	=222	=222	=222	=222	=222	=222	=222
4C	.	1A_	.	4E	-rit	4e	-rit
4.D	.	.	.	4D	.	2f	fi-
.	.	.	.	2F	fi-	.	.
16CLL	.	.	.	.	.	.	.
16BBJJ	.	.	.	.	.	.	.
4D	.	.	.	.	.	8eL	.
.	.	.	.	.	.	8dJ	.
!!LO:LB:g=original
=223	=223	=223	=223	=223	=223	=223	=223
1AA;l	-nis.	1A]	.	1E;l	-nis.	1c;l	-nis.
!!LO:LB:g=original
=224||	=224||	=224||	=224||	=224||	=224||	=224||	=224||
*M2/2	*	*M2/2	*	*M2/2	*	*M2/2	*
*met(C|)	*	*met(C|)	*	*met(C|)	*	*met(C|)	*
1A	Et	1r	.	1c	Et	1r	.
=225	=225	=225	=225	=225	=225	=225	=225
*	*	*	*Xedit	*	*	*	*
1D	in	1A	Et	2d	in	1r	.
.	.	.	.	[2f	spi-	.	.
=226	=226	=226	=226	=226	=226	=226	=226
1BB-X	spi-	1D	in	4f]	.	1r	.
.	.	.	.	4e	.	.	.
.	.	.	.	2d	.	.	.
=227	=227	=227	=227	=227	=227	=227	=227
1AA	-ri-	2E	spi-	2.c	-ri-	1a	Et
.	.	2F	-ri-	.	.	.	.
.	.	.	.	4A	.	.	.
=228	=228	=228	=228	=228	=228	=228	=228
1GG	-tum	1G	-tum	1B	-tum	1d	in
=229	=229	=229	=229	=229	=229	=229	=229
*	*	*	*edit	*	*edit	*	*
2r	.	2G	san-	4.B	san-	2e	spi-
.	.	.	.	8c	.	.	.
*	*edit	*	*	*	*	*	*
2D	san-	2A	-ctum,	2d	.	2f	-ri-
=230	=230	=230	=230	=230	=230	=230	=230
2E	-ctum,	2.G	do-	2B	-ctum,	1g	-tum
[2C	do-	.	.	4.c	do-	.	.
.	.	4F	.	.	.	.	.
.	.	.	.	8d	.	.	.
=231	=231	=231	=231	=231	=231	=231	=231
*	*	*lig	*	*	*	*	*
2C]	.	2E	.	2e	-mi-	2g	san-
2F	.	2D	.	2A	-num,	2a	-ctum,
*	*	*Xlig	*	*	*	*	*
!!LO:LB:g=original
=232	=232	=232	=232	=232	=232	=232	=232
4E	-mi-	2E	-mi-	4r	.	2g	do-
4C	.	.	.	2c	do-	.	.
2D	.	2F	.	.	.	2f	-mi-
.	.	.	.	4B	-mi-	.	.
=233	=233	=233	=233	=233	=233	=233	=233
2.C	-num	1G	-num	1c	-num	[1e	-num
4D	.	.	.	.	.	.	.
=234	=234	=234	=234	=234	=234	=234	=234
4E	.	1r	.	2.B	et	1e]	.
4F	.	.	.	.	.	.	.
2G	.	.	.	.	.	.	.
.	.	.	.	4c	.	.	.
=235	=235	=235	=235	=235	=235	=235	=235
1A	.	1D	et	1d	.	2.f	et
.	.	.	.	.	.	8eL	.
.	.	.	.	.	.	8dJ	.
=236	=236	=236	=236	=236	=236	=236	=236
1AA	et	1E	vi-	2r	.	2c	.
.	.	.	.	2c	vi-	2e	vi-
=237	=237	=237	=237	=237	=237	=237	=237
2D	vi-	2F	-vi-	2A	-vi-	2d	-vi-
4BB	-vi-	2G	-fi-	2B	-fi-	4d	-fi-
4GG	-fi-	.	.	.	.	[4e	-can-
=238	=238	=238	=238	=238	=238	=238	=238
*	*	*lig	*	*	*	*	*
2C	-can-	2E	-can-	1G	-can-	4e]	.
.	.	.	.	.	.	2c	.
2GG	-tem;	2D	.	.	.	.	.
.	.	.	.	.	.	4B	.
*	*	*Xlig	*	*	*	*	*
=239	=239	=239	=239	=239	=239	=239	=239
*	*Xedit	*	*	*	*	*	*
1G	qui	1C	-tem;	1E	-tem;	1c	-tem;
!!LO:LB:g=original
=240	=240	=240	=240	=240	=240	=240	=240
*	*	*	*	*	*Xedit	*	*
2F	ex	2r	.	2A	qui	2d	qui
*	*	*	*Xedit	*	*	*	*
2E	pa-	[2G	qui	4G	ex	2e	ex
.	.	.	.	[4c	pa-	.	.
=241	=241	=241	=241	=241	=241	=241	=241
1D	-tre	2G]	.	4c]	.	1f	pa-
.	.	.	.	8BL	.	.	.
.	.	.	.	8AJ	.	.	.
.	.	2F	ex	2B	.	.	.
=242	=242	=242	=242	=242	=242	=242	=242
*	*edit	*	*	*	*	*	*
1C	fi-	1G	pa-	1c	-tre	1e	-tre
=243	=243	=243	=243	=243	=243	=243	=243
*	*	*	*	*	*edit	*	*
2D	-li-	2F	-tre	2A	fi-	2f	fi-
*	*	*	*edit	*	*	*	*
2BB	-o-	2G	fi-	2B	-li-	2d	-li-
=244	=244	=244	=244	=244	=244	=244	=244
2AA	-que	2A	-li-	2c	-o-	2e	-o-
2D	pro-	2F	-o-	2A	-que	2f	-que
=245	=245	=245	=245	=245	=245	=245	=245
2C	-ce-	2G	-que	2c	pro-	2e	pro-
2D	.	2F	pro-	[2A	-ce-	[2d	-ce-
=246	=246	=246	=246	=246	=246	=246	=246
1AA	-dit.	1E	-ce-	2A]	.	2d]	.
.	.	.	.	2A	-dit.	2c#i	.
=247	=247	=247	=247	=247	=247	=247	=247
*	*	*	*	*	*Xedit	*	*
1r	.	1D	-dit.	4.F	Qui	1d	-dit.
.	.	.	.	8G	.	.	.
.	.	.	.	8AL	.	.	.
.	.	.	.	8B-iJ	.	.	.
.	.	.	.	4A	cum	.	.
!!LO:LB:g=original
=248	=248	=248	=248	=248	=248	=248	=248
*	*Xedit	*	*Xedit	*	*	*	*
4.AA	Qui	1A	Qui	4.c	pa-	2.e	Qui
8BB	.	.	.	8d	.	.	.
4C	.	.	.	4e	.	.	.
[4D	cum	.	.	4A	.	[4f	cum
=249	=249	=249	=249	=249	=249	=249	=249
8DL]	.	1F	cum	2d	-tre,	8fL]	.
8EJ	.	.	.	.	.	8gJ	.
4F	.	.	.	.	.	2a	.
2D	pa-	.	.	4r	.	.	.
*	*	*	*	*	*edit	*	*
.	.	.	.	4d	cum	8gL	.
.	.	.	.	.	.	8fJ	.
=250	=250	=250	=250	=250	=250	=250	=250
4C	-tre	1G	pa-	2e	pa-	4e	.
*	*edit	*	*	*	*	*	*
4.E	et	.	.	.	.	4.g	pa-
.	.	.	.	2c	-tre	.	.
8DL	.	.	.	.	.	8fL	.
8C	.	.	.	.	.	8e	.
8BBJ	.	.	.	.	.	8dJ	.
=251	=251	=251	=251	=251	=251	=251	=251
2AA	fi-	2A	-tre	4r	.	4c	.
.	.	.	.	4c	et	2cc	-tre
*	*	*	*edit	*	*	*	*
2GG	-li-	2B	et	2d	fi-	.	.
.	.	.	.	.	.	[4b	et
=252	=252	=252	=252	=252	=252	=252	=252
2AA	-o	2c	fi-	4c	.	4b]	.
.	.	.	.	2.e	.	2a	fi-
2E	.	2B	-li-	.	.	.	.
.	.	.	.	.	.	4g#i	-li-
=253	=253	=253	=253	=253	=253	=253	=253
*	*Xedit	*	*	*	*	*	*
2AA	si-	2A	-o	2c	-li-	2a	-o
2GG	-mul	2r	.	2B	-o	2r	.
=254	=254	=254	=254	=254	=254	=254	=254
*	*edit	*	*	*	*Xedit	*	*
2AA	ad-	1r	.	4A	si-	2a	si-
.	.	.	.	4c	.	.	.
2BB	-o-	.	.	4B	-mul	2g	-mul
*	*	*	*	*	*edit	*	*
.	.	.	.	4d	ad-	.	.
!!LO:LB:g=original
=255	=255	=255	=255	=255	=255	=255	=255
2C	-ra-	2A	si-	8cL	-o-	2a	ad-
.	.	.	.	8d	.	.	.
.	.	.	.	8e	.	.	.
.	.	.	.	8fJ	.	.	.
2BB	.	2G	-mul	2g	-ra-	2b	-o-
=256	=256	=256	=256	=256	=256	=256	=256
*	*	*	*	*	*	*lig	*
2AA	-tur	2A	ad-	2c	-tur,	2cc	-ra-
2r	.	2B	-o-	4r	.	2b	.
.	.	.	.	4G	ad-	.	.
*	*	*	*	*	*	*Xlig	*
=257	=257	=257	=257	=257	=257	=257	=257
1r	.	1c	-ra-	8AL	-o-	1a	-tur
.	.	.	.	8B	.	.	.
.	.	.	.	8c	.	.	.
.	.	.	.	8dJ	.	.	.
.	.	.	.	2e	-ra-	.	.
=258	=258	=258	=258	=258	=258	=258	=258
2D	et	1A	-tur	2f	-tur,	2dd	et
2F	con-	.	.	4r	.	2cc	con-
.	.	.	.	4f	a-	.	.
=259	=259	=259	=259	=259	=259	=259	=259
*	*	*	*Xedit	*	*	*	*
2G	-glo-	2d	et	4d	-do-	2b	-glo-
.	.	.	.	4g	-ra-	.	.
4A	.	2c	con-	4e	-tur	2a	-ri-
4F	.	.	.	4f	.	.	.
=260	=260	=260	=260	=260	=260	=260	=260
2G	.	2B	-glo-	2d	et	2g	-fi-
*	*	*	*	*	*	*lig	*
2D	-ri-	2A	-ri-	4r	.	2f	-ca-
.	.	.	.	4d	con-	.	.
=261	=261	=261	=261	=261	=261	=261	=261
2E	-fi-	1G	-fi-	2B	-glo-	2g	.
*lig	*	*	*	*	*	*	*
*	*	*	*	*	*	*Xlig	*
2C	.	.	.	2c	-ri-	2e	.
*Xlig	*	*	*	*	*	*	*
=262	=262	=262	=262	=262	=262	=262	=262
*lig	*	*	*	*	*	*	*
2D	-ca-	2F	-ca-	2A	-fi-	2.d	.
2GG	.	2G	.	2B-X	-ca-	.	.
.	.	.	.	.	.	4B-j	.
*Xlig	*	*	*	*	*	*	*
!!LO:LB:g=original
=263	=263	=263	=263	=263	=263	=263	=263
[1AA	-tur;	[1E	-tur;	[1A	-tur;	[1c	-tur;
=264	=264	=264	=264	=264	=264	=264	=264
1AA]	.	1E]	.	1A]	.	1c]	.
=265	=265	=265	=265	=265	=265	=265	=265
*	*Xedit	*	*	*	*Xedit	*	*
2D	qui	1r	.	2A	qui	2d	qui
2E	lo-	.	.	2G	lo-	2c	lo-
=266	=266	=266	=266	=266	=266	=266	=266
2F	-cu-	2D	qui	2A	-cu-	2d	-cu-
2G	-tus	2C	lo-	2c	-tus	2e	-tus
=267	=267	=267	=267	=267	=267	=267	=267
*	*edit	*	*	*	*	*	*
4.F	est	2D	-cu-	4.A	est	2f	est
8E	.	.	.	8B	.	.	.
2C	.	2E	-tus	8cL	.	[2g	per
.	.	.	.	8dJ	.	.	.
.	.	.	.	[4e	.	.	.
=268	=268	=268	=268	=268	=268	=268	=268
2E	per	1G	est	4e]	.	4g]	.
.	.	.	.	4B	.	4f	.
2C	.	.	.	4.c	.	[2e	pro-
.	.	.	.	8d	.	.	.
=269	=269	=269	=269	=269	=269	=269	=269
*	*	*	*edit	*	*	*	*
2AA	pro-	1A	per	8eL	.	2e]	.
.	.	.	.	8d	.	.	.
.	.	.	.	8c	.	.	.
.	.	.	.	8BJ	.	.	.
[2D	-phe-	.	.	2A	.	[2f	-phe-
!!LO:LB:g=original
=270	=270	=270	=270	=270	=270	=270	=270
*	*	*lig	*	*lig	*	*	*
*	*	*	*	*	*edit	*	*
4D]	.	1D	pro-	2F	per	4f]	.
4C	.	.	.	.	.	4e	.
2BB-j	.	.	.	2G	.	[2d	.
*	*	*	*	*Xlig	*	*	*
=271	=271	=271	=271	=271	=271	=271	=271
1AA	-tas.	1E	-phe-	1A	pro-	2d]	.
.	.	.	.	.	.	2c#i	.
*	*	*Xlig	*	*	*	*	*
=272	=272	=272	=272	=272	=272	=272	=272
2r	.	1D	-tas.	2.F	-phe-	1d	-tas.
*	*Xedit	*	*	*	*	*	*
2A	Et	.	.	.	.	.	.
.	.	.	.	4D	.	.	.
=273	=273	=273	=273	=273	=273	=273	=273
*	*	*	*Xedit	*	*	*	*
4F	.	1d	Et	1D	-tas.	2a	Et
4.D	u-	.	.	.	.	.	.
.	.	.	.	.	.	4b-j	u-
8E	.	.	.	.	.	.	.
4F	.	.	.	.	.	4a	.
=274	=274	=274	=274	=274	=274	=274	=274
2G	-nam	1d	u-	2r	.	4b-j	-nam
.	.	.	.	.	.	2dd	san-
*	*	*	*	*	*Xedit	*	*
4r	.	.	.	2G	Et	.	.
4GG	san-	.	.	.	.	8ccL	.
.	.	.	.	.	.	8b-jJ	.
=275	=275	=275	=275	=275	=275	=275	=275
2AA	.	2c	-nam	4.E	u-	2a	-ctam
.	.	.	.	8F	.	.	.
4GG	-ctam	2B	san-	2G	-nam	2d	ca-
*	*edit	*	*	*	*	*	*
4BB	ca-	.	.	.	.	.	.
=276	=276	=276	=276	=276	=276	=276	=276
4.AA	-tho-	2c	-ctam	4r	.	2e	-tho-
.	.	.	.	4A	san-	.	.
8GG	.	.	.	.	.	.	.
*	*	*	*edit	*	*	*	*
2AA	-li-	2A	ca-	2c	-ctam	2f#j	-li-
!!LO:LB:g=original
=277	=277	=277	=277	=277	=277	=277	=277
2GG	-cam,	1B	-tho-	2d	ca-	4.g	-cam,
.	.	.	.	.	.	8f	.
2BB	ca-	.	.	4d	-tho-	4d	.
*	*	*	*	*	*	*	*edit
.	.	.	.	4d	-li-	4g	ca-
=278	=278	=278	=278	=278	=278	=278	=278
1AA	-tho-	1c	-li-	1e	-cam	4a	-tho-
.	.	.	.	.	.	8gL	.
.	.	.	.	.	.	8fJ	.
.	.	.	.	.	.	2e	-li-
=279	=279	=279	=279	=279	=279	=279	=279
1D	.	[1d	-cam	2r	.	1f	-cam
.	.	.	.	2A	et	.	.
=280	=280	=280	=280	=280	=280	=280	=280
2G	.	1d]	.	2B-i	a-	2r	.
*	*	*	*	*	*	*	*Xedit
2F	.	.	.	2A	-po-	[2a	et
=281	=281	=281	=281	=281	=281	=281	=281
2D	.	1r	.	4.d	-sto-	2a]	.
.	.	.	.	8c	.	.	.
4E	-li-	.	.	4B	.	2g	a-
4C	.	.	.	4c	.	.	.
=282	=282	=282	=282	=282	=282	=282	=282
2D	-cam	1r	.	4A	.	2f	.
.	.	.	.	2d	-li-	.	.
*	*Xedit	*	*	*	*	*	*
2A	et	.	.	.	.	2e	-po-
.	.	.	.	4c#i	.	.	.
=283	=283	=283	=283	=283	=283	=283	=283
*	*	*	*Xedit	*	*	*	*
4.B-X	a-	1d	et	4.d	-cam	2d	-sto-
8A	.	.	.	8c	.	.	.
4.F	-po-	.	.	2A	.	2f	-li-
8G	.	.	.	.	.	.	.
!!LO:LB:g=original
=284	=284	=284	=284	=284	=284	=284	=284
*	*	*	*	*	*edit	*	*
2A	-sto-	2c	a-	8AL	ec-	2e	-cam
.	.	.	.	8B	.	.	.
.	.	.	.	8c	.	.	.
.	.	.	.	8dJ	.	.	.
2E	-li-	2B	-po-	2e	.	2g	ec-
=285	=285	=285	=285	=285	=285	=285	=285
2F	-cam	2A	-sto-	4.c	-cle-	4a	.
.	.	.	.	.	.	2cc	-cle-
.	.	.	.	8d	.	.	.
2r	.	2G	-li-	8eL	.	.	.
.	.	.	.	8fJ	.	.	.
.	.	.	.	4g	.	4b	.
=286	=286	=286	=286	=286	=286	=286	=286
*	*edit	*	*	*	*	*	*
2F	ec-	2A	-cam	4.c	.	4a	.
.	.	.	.	.	.	2cc	.
.	.	.	.	8d	.	.	.
*	*	*	*edit	*	*	*	*
2E	.	2G	ec-	2e	.	.	.
.	.	.	.	.	.	4b	.
=287	=287	=287	=287	=287	=287	=287	=287
2F	-cle-	1F	-cle-	4c	.	2.a	.
.	.	.	.	2A	.	.	.
2D	.	.	.	.	.	.	.
.	.	.	.	4B	.	8gL	.
.	.	.	.	.	.	8fJ	.
=288	=288	=288	=288	=288	=288	=288	=288
1C	-si-	1G	-si-	1c	-si-	4e	.
.	.	.	.	.	.	2f	-si-
.	.	.	.	.	.	4e	.
=289	=289	=289	=289	=289	=289	=289	=289
[1D	-am.	[1F	-am.	[1A	-am.	[1f	-am.
=290	=290	=290	=290	=290	=290	=290	=290
1D]	.	1F]	.	1A]	.	2f]	.
.	.	.	.	.	.	2a	Con-
!!LO:LB:g=original
=291	=291	=291	=291	=291	=291	=291	=291
*	*Xedit	*	*Xedit	*	*	*	*
1BB-X	Con-	1G	Con-	1D	Con-	4g	-fi-
.	.	.	.	.	.	8fL	.
.	.	.	.	.	.	8eJ	.
.	.	.	.	.	.	2d	.
=292	=292	=292	=292	=292	=292	=292	=292
2AA	-fi-	2A	-fi-	2E	-fi-	2c	.
2AA	-te-	2A	-te-	2E	-te-	2c	-te-
=293	=293	=293	=293	=293	=293	=293	=293
1AA	-or	1A	-or	1E	-or	1c	-or
=294	=294	=294	=294	=294	=294	=294	=294
*	*edit	*	*edit	*	*	*	*
1GG	u-	1D	u-	1G	u-	2r	.
.	.	.	.	.	.	[2d	u-
=295	=295	=295	=295	=295	=295	=295	=295
2D	-num	2F	-num	2A	-num	2d]	.
2BB	ba-	2G	ba-	4B	.	2d	-num
.	.	.	.	[4d	ba-	.	.
=296	=296	=296	=296	=296	=296	=296	=296
*	*	*lig	*	*	*	*	*
2C	-pti-	2E	-pti-	4d]	.	2e	ba-
.	.	.	.	2c	-pti-	.	.
2GG	.	2D	.	.	.	2g	-pti-
.	.	.	.	4B	.	.	.
*	*	*Xlig	*	*	*	*	*
=297	=297	=297	=297	=297	=297	=297	=297
1AA	-sma	1C	-sma	1c	-sma	1e	-sma
=298	=298	=298	=298	=298	=298	=298	=298
*	*	*	*Xedit	*	*	*	*
1r	.	2D	in	2A	in	1r	.
.	.	2C	re-	2c	re-	.	.
!!LO:LB:g=original
=299	=299	=299	=299	=299	=299	=299	=299
2D	in	2D	-mis-	2F	-mis-	2d	in
2AA	re-	2E	-si-	2A	-si-	2c	re-
=300	=300	=300	=300	=300	=300	=300	=300
2D	-mis-	2F	-o-	4.A	-o-	2d	-mis-
.	.	.	.	8B	.	.	.
2C	-si-	[2G	.	2c	.	2e	-si-
=301	=301	=301	=301	=301	=301	=301	=301
*	*	*	*	*lig	*	*	*
1E	-o-	4G]	.	2B	.	1g	-o-
.	.	4F	.	.	.	.	.
.	.	2E	.	2c#i	.	.	.
*	*	*	*	*Xlig	*	*	*
=302	=302	=302	=302	=302	=302	=302	=302
2F	-nem	2D	-nem	1d	-nem	1f	-nem
*	*	*	*edit	*	*	*	*
2D	pec-	[2A	pec-	.	.	.	.
=303	=303	=303	=303	=303	=303	=303	=303
*	*	*	*	*	*	*lig	*
*lig	*	*	*	*	*	*	*
2C	-ca-	1A]	.	2e	pec-	2e	pec-
2D	.	.	.	2d	.	2f	.
*Xlig	*	*	*	*	*	*Xlig	*
=304	=304	=304	=304	=304	=304	=304	=304
4E	-to-	2G	-ca-	4B	-ca-	2e	-ca-
4C	.	.	.	4c	.	.	.
2D	.	2F	.	[2A	-to-	[2d	-to-
=305	=305	=305	=305	=305	=305	=305	=305
1AA	-rum.	1E	-to-	1A]	.	4d]	.
.	.	.	.	.	.	8c#iL	.
.	.	.	.	.	.	8BJ	.
.	.	.	.	.	.	2c#i	.
!!LO:LB:g=original
=306	=306	=306	=306	=306	=306	=306	=306
1A	Et	[1D	-rum.	2.F	.	1d	-rum.
.	.	.	.	4D	.	.	.
=307	=307	=307	=307	=307	=307	=307	=307
*	*	*	*	*lig	*	*	*
2F	ex-	1D]	.	1D	-rum.	1a	Et
[2D	-spe-	.	.	.	.	.	.
=308	=308	=308	=308	=308	=308	=308	=308
4D]	.	1r	.	1d	Et	1b	ex-
4C	.	.	.	.	.	.	.
2BB	.	.	.	.	.	.	.
*	*	*	*	*Xlig	*	*	*
=309	=309	=309	=309	=309	=309	=309	=309
*	*	*	*Xedit	*	*	*	*
1AA	-cto	1A	Et	1e	ex-	1cc	-spe-
=310	=310	=310	=310	=310	=310	=310	=310
2r	.	1B	ex-	2d	-spe-	4.dd	-cto
.	.	.	.	.	.	8cc	.
2GG	re-	.	.	4.g	-cto	8bL	.
.	.	.	.	.	.	8aJ	.
.	.	.	.	.	.	[4g	re-
.	.	.	.	8f	.	.	.
=311	=311	=311	=311	=311	=311	=311	=311
4.C	-sur-	1c	-spe-	8eL	.	8gL]	.
.	.	.	.	8dJ	.	8f	.
.	.	.	.	4.c	re-	8e	.
8BB	.	.	.	.	.	8dJ	.
2AA	-re-	.	.	.	.	2e	-sur-
.	.	.	.	8d	.	.	.
.	.	.	.	4e	-sur-	.	.
=312	=312	=312	=312	=312	=312	=312	=312
2D	-cti-	1d	-cto	2.A	-re-	2d	-re-
2D	-o-	.	.	.	.	2a	-cti-
.	.	.	.	4F	-cti-	.	.
=313	=313	=313	=313	=313	=313	=313	=313
*	*	*	*edit	*	*	*	*
2GG	-nem,	2d	re-	2G	-o-	4b	-o-
.	.	.	.	.	.	2dd	-nem
4r	.	2e	-sur-	2E	-nem	.	.
[4C	re-	.	.	.	.	4cc	mor-
!!LO:LB:g=original
=314	=314	=314	=314	=314	=314	=314	=314
4C]	.	2d	-re-	4r	.	4a	-tu-
2GG	-sur-	.	.	2G	mor-	4.b	-o-
.	.	2c	-cti-	.	.	.	.
.	.	.	.	.	.	8cc	.
4AA	-re-	.	.	[4E	.	[4a	.
=315	=315	=315	=315	=315	=315	=315	=315
1E	-cti-	1B	-o-	4E]	.	4a]	.
.	.	.	.	2.e	-tu-	8gL	.
.	.	.	.	.	.	8fJ	.
.	.	.	.	.	.	8gL	.
.	.	.	.	.	.	8f	.
.	.	.	.	.	.	8e	.
.	.	.	.	.	.	8dJ	.
=316	=316	=316	=316	=316	=316	=316	=316
2F	-o-	2A	-nem	4c	-o-	1c	-rum.
.	.	.	.	8BL	.	.	.
.	.	.	.	8AJ	.	.	.
2E	-nem	2c	mor-	2G	.	.	.
=317	=317	=317	=317	=317	=317	=317	=317
2D	mor-	2B	-tu-	2F	.	2r	.
2C	-tu-	[2A	-o-	[2E	.	2a	Et
=318	=318	=318	=318	=318	=318	=318	=318
1BB	-o-	4A]	.	2E]	.	1b	vi-
.	.	8G#iL	.	.	.	.	.
.	.	8F#iJ	.	.	.	.	.
.	.	2G#i	.	2D	.	.	.
=319	=319	=319	=319	=319	=319	=319	=319
1AA	-rum.	1A	-rum.	1E	-rum.	2cc	-tam
.	.	.	.	.	.	2a	ven-
=320	=320	=320	=320	=320	=320	=320	=320
*	*	*	*	*	*	*lig	*
*	*Xedit	*	*	*	*Xedit	*	*
2E	Et	1r	.	2G	Et	2g	-tu-
2D	.	.	.	4.A	vi-	2f	.
.	.	.	.	8B	.	.	.
*	*	*	*	*	*	*Xlig	*
!!LO:LB:g=original
=321	=321	=321	=321	=321	=321	=321	=321
*	*	*	*Xedit	*	*	*	*
2C	vi-	1A	Et	[1c	-tam	2.e	.
2AA	.	.	.	.	.	.	.
.	.	.	.	.	.	[4f	.
=322	=322	=322	=322	=322	=322	=322	=322
2C	-tam	2G	vi-	2c]	.	4f]	.
.	.	.	.	.	.	2e	.
*	*edit	*	*	*	*edit	*	*
2D	ven-	2F	.	2A	ven-	.	.
.	.	.	.	.	.	4d	.
=323	=323	=323	=323	=323	=323	=323	=323
1AA	-tu-	1E	-tam	4.c	-tu-	1e	-ri
.	.	.	.	8d	.	.	.
.	.	.	.	[2e	-ri	.	.
=324	=324	=324	=324	=324	=324	=324	=324
*	*	*	*edit	*	*	*	*
1D	-ri	1F	ven-	4e]	.	2r	.
.	.	.	.	4d	.	.	.
.	.	.	.	[2d	se-	[2a	se-
=325	=325	=325	=325	=325	=325	=325	=325
1r	.	1E	-tu-	2d]	.	2a]	.
.	.	.	.	2c#i	-cu-	2g	.
=326	=326	=326	=326	=326	=326	=326	=326
2r	.	2D	-ri	1d	-li,	2f	-cu-
2D	se-	[2d	se-	.	.	2d	.
=327	=327	=327	=327	=327	=327	=327	=327
1A	-cu-	2d]	.	2r	.	1e	.
.	.	2c#i	-cu-	[2A	se-	.	.
!!LO:LB:g=original
=328	=328	=328	=328	=328	=328	=328	=328
2D	.	[1d	-li.	2A]	.	1d	-li.
2G	.	.	.	2B-j	-cu-	.	.
=329	=329	=329	=329	=329	=329	=329	=329
*	*	*	*	*	*	*lig	*
2F	.	1d]	.	1A	-li.	1f	A-
2D	.	.	.	.	.	.	.
=330	=330	=330	=330	=330	=330	=330	=330
1E	-li.	1r	.	2r	.	1g	.
.	.	.	.	2B	A-	.	.
*	*	*	*	*	*	*Xlig	*
=331	=331	=331	=331	=331	=331	=331	=331
*	*	*	*Xedit	*	*	*	*
2r	.	1F	A-	1c	.	1a	.
*	*Xedit	*	*	*	*	*	*
2AA	A-	.	.	.	.	.	.
=332	=332	=332	=332	=332	=332	=332	=332
1BB	.	1G	.	2d	.	1d	.
.	.	.	.	2B	.	.	.
=333	=333	=333	=333	=333	=333	=333	=333
*	*	*	*	*	*	*	*edit
2AA	.	1A	.	2e	.	2c	-men,
[2D	.	.	.	2d	.	[2f	a-
=334	=334	=334	=334	=334	=334	=334	=334
*	*	*lig	*	*	*	*	*
4D]	.	1D	.	1A	.	4f]	.
4E	.	.	.	.	.	4g	.
2F	.	.	.	.	.	[2a	.
=335	=335	=335	=335	=335	=335	=335	=335
1D	.	1F	.	[1d	-men,	4a]	.
.	.	.	.	.	.	4g	.
.	.	.	.	.	.	4f	.
.	.	.	.	.	.	4e	.
*	*	*Xlig	*	*	*	*	*
!!LO:LB:g=original
=336	=336	=336	=336	=336	=336	=336	=336
2BB-j	.	1G	.	1d_	.	2d	.
2GG	.	.	.	.	.	[2g	.
=337	=337	=337	=337	=337	=337	=337	=337
*	*edit	*	*edit	*	*	*	*
1D	-men,	1A	-men,	1d]	.	2g]	.
.	.	.	.	.	.	2f#i	.
=338	=338	=338	=338	=338	=338	=338	=338
*	*	*	*	*	*Xedit	*	*
2E	a-	[1G	a-	2B	a-	2g	-men,
[2C	.	.	.	[2c	.	[2e	a-
=339	=339	=339	=339	=339	=339	=339	=339
2C]	.	2G]	.	2c]	.	4e]	.
.	.	.	.	.	.	4d	.
2D	.	2F	.	[2A	.	[2d	.
=340	=340	=340	=340	=340	=340	=340	=340
1AA	.	1E	.	1A]	.	2d]	.
.	.	.	.	.	.	2c#i	.
=341	=341	=341	=341	=341	=341	=341	=341
1Dl	-men.	1Dl	-men.	1Fl	-men.	1dl	-men.
==	==	==	==	==	==	==	==
*-	*-	*-	*-	*-	*-	*-	*-
!!!system-decoration: [*]
!!!RDF**kern: i = editorial accidental
!!!RDF**kern: j = editorial accidental, optional, paren up
!!!RDF**kern: l = terminal breve
!!!PTL: Gaspar van Weerbeke: Collected Works. II. Masses, Part 2
!!!ISBN: 978-1-59551-518-6
!!!PPR: American Institute of Musicology
!!!PC#: Corpus Mensurabilis Musicae 106/II.2
!!!PDT: 2018
!!!PED: Kolb, Paul
!!!YEC: Copyright 2016 Kolb, Paul
!!!YEM: CC-BY-NC 4.0 (https://creativecommons.org/licenses/by-nc/4.0/legalcode)
!!!EED: Sapp, Craig Stuart
!!!EEV: 2022/02/09
!!!muse2ps: C^@{COM}^i2I150v90,90,90,120c122z18l2700t130
